X:1
T:Pierre et le loup
T:Prokofiev Arr. Carmichael and Alex Harb 
%%score 1 2 3 4
L:1/8
Q:1/4=92
M:4/4
K:C
V:1 treble transpose=-9 nm="Alto Saxophone" snm="A. Sax."
V:2 treble transpose=-2 nm="B♭ Trumpet" snm="B♭ Tpt."
V:3 treble transpose=-2 nm="B♭ Clarinet" snm="B♭ Cl."
V:4 treble nm="Flute" snm="Fl."
V:1
[K:A]"^Andantino""^Pierre"!p! CDEF GA F/F/E | CFAE DE FA/ z/ |!p! a2 ae' a2 ae' |!mf! a2 e2 e3 z | %4
 =D4 z4 | z4 =E/F/D/ z/ z/ z/ z | z2 bg a2 aa |!p! g2 z2 z4 | z2 A2 edcB | A4 E4 | a2 ae' a2 ae' | %11
!mf! a2 e2 e3 z | d2 d2 f/ec/ _B_G | _E4 z4 | b2 bg a2 aa | g2 z2 z4 |!f! ABcd ede^d | %17
 c^d^e=g a2 c'2 |!mf! C^D^EF GA^AB | d4!p! d' z z2 ||[Q:1/4=176]"^Allegro""^L'oiseau" z8 | z8 | %22
 z8 |[Q:1/4=80] z8 |[Q:1/4=150]!mp! c/e/c/A/ =c/e/c/G/ ^c/e/c/A/ =c/e/c/G/ | %25
 c/e/c/A/ =c/e/c/G/ ^c/e/c/A/ =c/e/c/G/ | e/B/G/E/ G/B/e/g/ b/g/^d/B/ d/g/b/^d'/ | %27
 e'/b/g/e/ ^d/e/g/b/ .e' z z2 |[Q:1/4=100]!mf! .A.E^A z .=A.E^A z | .A z .=G.=F E z z2 | %30
 .A.E^A z .=A.E^A z | .A z .=G.=F E4 |!p! c/e/c/A/ =c/e/c/G/ ^c/e/c/A/ =c/e/c/G/ | %33
 c/e/c/A/ =c/e/c/G/ ^c/e/c/A/ =c/e/c/G/ | e/B/G/E/ G/B/e/g/ b/g/^d/B/ d/g/b/^d'/ | %35
 e'/b/g/e/ ^d/e/g/b/!f! .e' z[Q:1/4=92]"^Andantino" z2 || %36
[K:F][M:3/4][Q:1/4=92]"^Andantino""^Le canard"!mf!{/^c} =c6 |{/c} =B_B AB{/^c} ed |{/^c} =c6 | %39
{/c} =B_B AB{/=B} =b^g | a2 c'3 a | g2 b2 de | f2 a2 c2 |!p! c6 | .g.f .e.f g2 |!mf!{/^c} =c6 | %46
{/c} =B_B AB{/^c} ed |{/^c} =c6 |{/c} =B^A Be =bd' | d'2 c'2 ad' | c'2 b2 de | f2 a2 cc |!p! c6 | %53
 .g.f .e.f g2 | z2!p! g4 ||[K:A][Q:1/4=104]"^Moderato""^Le chat" z6 |[M:4/4]!p! .F2 z2 .F2 z2 | %57
 .B,2 z2 .B,2 z2 | .^B,2 z2 .C2 z2 | z2 .^^F2 .F2 z2 | .^^F2 z2 .F2 z2 | .^B,2 z2 .B,2 z2 | %62
 .C2 z2 .D2 z2 | z6!pp! .B2 | .A2 z2 z2 .B2 | .A2 z2 z2!p! .e2 | .e2 .E2 .^D2 .C2 | %67
!mp! z2 .e2 z2 .e2 | z2 .f2 z2 .f2 | z2 .f2 z2 .f2 | z2 .C2 .a2 z2 | z2 .e2 z2 .e2 | %72
 z2 .f2 z2 .f2 | z2 .f2 z2 .f2 | z2 D2 C2 z2 ||[K:C][Q:1/4=96]"^Andante""^Le grand-père" z8 | %76
!p! E z E z E z E z | E z E z E z E z | F z (3F^FG E z D z | ^f6 z3/2!f! f/ | %80
 g z/ F/ ^F z/ ^f/ g z/ =F/ ^F z/ f/ | g z/ F/ ^F z/ ^f/ g z/ =F/ ^F z | F3 E DCB, z | %83
!p! E z e z d z c z | B z E z F z ^F z | F z (3F^FG E z D z |[M:2/4] D z D z/!mp! ^C/ | %87
[M:4/4] D z/ ^C/ D z/ =C/ _D z/ C/ D z/ B,/ | C z/ B,/ C z/ _B,/ =B, z/ _B,/ =B, z/ ^C/ | %89
 D z/ ^c/ B z/ C/ _D z/ =c/ _B z/ B,/ | C z/ B/ A z/ _B,/ =B, z/ _B/ ^G z | z8 | %92
!f! D/B,/D/B,/ D/B,/_A C2 C2 | ^C8 | B z c z z4 || %95
[K:G][Q:1/4=66]"^Andante molto""^Le Loup"!p! B,4 G/F/G/F/ GG | B^ABG =A4 |!mf! =F4 d/^c/d/c/ dd- | %98
 d/^c/d/c/ dd- d/c/d/c/ dd |!f! F4 d/^c/d/c/ dd | f^efd =e4 | a/^g/a/g/ aa- a/g/a/g/ aa | %102
 .^c.d.c.f .^d.e.^e.g |!p! B,4 G/F/G/F/ GG | B^ABG =A4 | c'2 bc de f2 | a4 B,4 || %107
V:2
[K:D]!p! A,DFD A,DFD | A,DFD A,DFA, | z2 D_B, FB,DB, |!mf! DFA,F DGA,^G, | A,=C=FD CFAF | %5
 =C=FAF CFCA, | ^G,CEC DGDG |!p! EA,CB, A,GFE | z2 FD A,DFD | A,DFD A,DFA, | F_B,DB, FB,DB, | %11
!mf! z2 A,F DFA,^G, | A,=C=FD CFAF | =C=FAF CFCA, | z8 | z8 |!f! DEFG AGF=F | _E4 D2 F2 | z8 | %19
 e4!p! d z z2 || z8 | z8 | z8 | dc/d/ c/c/ z d/d z/ A/A z/ | B/B z/ B/B z/ d/d z/ G/Gc/- | %25
 c/ z/ z z2 z4 | z8 | z8 | z8 | z8 | z8 | z8 |!mp! .e.B.^d.B .e.B.d.B | .e.B.^d.B .e.B.d.^B | %34
 B z ^d/=d/^d/e/ f z _e/=d/e/g/ | _a z ._b.=b z4 ||[K:Bb][M:3/4] c=B AB c2 | c2 G2 =B2 | %38
 c=B AB c2 | c2 G2 =B2 | z6 | c=B AB c2 | c=B AB c2 | c=B AB c2 |!p! =BA GA B2 | z6 | %46
!mf! c=B AB c2 | c2 G2 =B2 | z6 | c=B AB c2 | c=B AB c2 | c=B AB c2 |!p! =BA GA B2 | .A.G .F.G A2 | %54
 z2 f4 ||[K:D] z6 |[M:4/4] z8 | z8 | z8 | B4 z2 .F.B | .^d2 .B.F .^E2 .F.B | .^d.f e2- edfe | %62
 ^dced cBdc | ^A4 .B2!pp! .^d2 | .^d2 .F2 z2 .d2 | .^d2 .F2 z2!p! .^g2 | z8 |!mp! .F2 z2 .F2 z2 | %68
 .F.A G2- GFDE | FE.C.D ED.B,.C | D4 .F2 .A,.D | .^G2 z2 .G2 z2 | .F.A G2- GFAG | FEGF EDFE | %74
 C4 D z z2 ||[K:F] z4 z2 z3/2!mf! ^F/ | ^c z/ c/ ^F2- F>^G A>=B | ^c>A ee ee (3e^fg | %78
 ^g2- (3gab f z (3_ccc | e z e z e z e z |!mp! e z e z _e z e z | d z d z _d z d z | z8 | %83
!p! G z g z ^f z e z | d z G z A z B z | A z (3AB=B ^F z F z |[M:2/4] ^F z F z/!mp! ^G/ | %87
[M:4/4] c z/ B,/ =B, z/ =B/ c z/ _B,/ =B, z/ B/ | E z/ _G/ E z/ F/ _E z/ F/ E z/ _A/ | z8 | %90
 c z/ B,/ =B, z/ =B/ c z/ _B,/ =B, z |!f! z d/B/ G/E/_A f2 .G z | z4 _A,2 A,2 | e8 | E z F z z4 || %95
[K:C]!p! E4 B/c/B/c/ BB | eceB A4 |!mf! A4 f/^f/=f/^f/ ff- | f/^g/=g/^g/ =gg- g/=f/^f/=f/ ^ff | %99
!f! ^F4 ^c/d/c/d/ cc | ^fdf^c B4 | e/^d/e/d/ ee- e/d/e/d/ ee | z8 |!p! ^c4 ^g/a/g/a/ gg | %104
 BGB^F E4 | f2 eF GA B2 | d2 c4 z2 || %107
V:3
[K:D]!p! A2 d>.f .a.b a>f | .a.b c'>d' af.d.e | =f2 fc' f2 fc' |!mf! =f2 =c2 c3 z | %4
 z =c =f>.a .=c'.d' c'>a | .=c'.d' e'>=f' c'a.=f.g | ^g2 ge' g2 ge' |!p! a2 A2 A3 z | %8
 z2 d>.f .a.b a>f | .a.b c'>d' af.d.e | =f2 fc' f2 fc' |!mf! =f2 =c2 c3 B | z2 ^E>.A .^B.d B>A | %13
 .^B.d e>^e BA.^E.G | ^G2 Ge G2 Ge | A2 A,2!p! z2 z2 |!f! DEFG ABcd | ^d=f^f^g ^a2 ^d'2 | %18
!mf! ^D=F^F^G AB=c^c | c4!p! d z z2 || z8 | z8 | z8 |!mf!{/b} .a.f{/b} .^a.a .a.a{/b} .a.f | %24
 e/=f/_e/d/ .c(3B/c/B/ A.A.d.^f |{/b} .a.f{/b} .^a.a .a.a{/b} .a.f | z8 | z8 | %28
!mf!{/b} .a.f{/b} .^a.a .a.a{/b} .a.f | e/=f/_e/d/ .c(3B/c/B/ A.A.d.^f | %30
{/b} .a.f{/b} .^a.a .a.a{/b} .a.f | e/=f/_e/d/ .a{/c}.B A2 G2 | z8 | z8 | z8 | z8 || %36
[K:Bb][M:3/4]!mf! =ed cd e2 | e2 ^c2 e2 | =ed cd e2 | e2 ^c2 e2 | z6 | z6 | z6 | %43
!mp!{/^f} .=f.f f2{/^f} .=f.f | f/^f/.=f/.=e/ F2 z2 |!mf! DC B,C D2 | z6 | DC B,C D2 | %48
 ^C2 =C2 ^C2 | z6 | ED CD E2 | DC B,C D2 | z2!mp!{/^f} .=f.f f2 |{/^f} .=f.f f/^f/.=f/.=e/ F2 | %54
 z2 f4 ||[K:D] z4!p! .F.B |[M:4/4] .^d2 .B.F .^E2 .F.B | .^d.f e2- edBc | ^dc.^A.B cB.^G.A | z8 | %60
 z8 | z8 | z8 | z6!pp! .e2 | .E2 z2 z2 .e2 | .E2 z2 z2!p! .f2 | .e2 z2!f! z!f! z!f! .A,.D | %67
 .F2 .D.A, .^G,2 .A,.D | .f2 z2 .f2 z2 | .f2 z2 .e2 z2 | .D .F2 .D .A, .^G,2 .A, | .D z z2 .f2 z2 | %72
 .f2 z2 z2 .f2 | z2 .f2 z2 .g2 | z2 .c2 F2 z2 ||[K:F] z8 |!p! D z D z D z D z | D z D z D z D z | %78
 C z (3C_D=D z4 | g z g z g z g z |!mp! g z g z ^f z f z | f z f z e z e z | z8 | %83
 d3 ^c =BA ^G z/!f! ^F/ | ^c z/ c/ ^F2- F>^G A>=B | ^c>A ee ee (3e^fg |[M:2/4] ^g2 (3gab | %87
[M:4/4] f z (3^c'c'c' z4 | c z/ B,/ =B, z/ =B/ c z/ _B,/ =B, z/ B/ | %89
 c z/ B,/ _C z/ _c/ =c z/ B,/ C z/ _c/ | z8 |!f! g/e/g/e/ g/e/_a _e2 .c z | z2 z B _D2 D2 | E8 | %94
 E z F z z4 ||[K:C]!p! D4 B/_B/=B/_B/ =BB | d_d=dB A4 |!mf! A4 e/f/e/f/ ee | %98
 D/D/_E/D/ E(E D/)D/E/D/ EE |!f! D4 B/^A/B/A/ BB | dcdB A4 | ^c/B/c/B/ cc- c/=c/^c/=c/ ^cc | %102
 .^f.g.f.g .^g.a.^a.c' |!p! A4 ^f/=f/^f/=f/ ^ff | d^cdB A4 | f2 eF GA B2 | d2 c4 z2 || %107
V:4
!p! G2 c>.e .g.a g>e | .g.a b>c' ge.c.d | _e2 eb e2 eb |!mf! _e2 _B2 B3 A | _B2 _e>.g ._b.c' b>g | %5
 ._b.c' d'>_e' bg._e.f | ^f2 fd' f2 fd' |!p! g2 G2 G3 z | G2 c>.e .g.a g>e | .g.a b>c' ge.c.d | %10
 _e2 eb e2 eb |!mf! _e2 _B2 B3 A | _B2 _e>.g ._b.c' b>g | ._b.c' d'>_e' bg._e.f | ^f2 fd' f2 fd' | %15
 g2 G2!p! G4 |!f! CDEF GABc | ^c_e=e^f ^g2 ^c'2 |!mf! ^C_E=E^F GA_B=B | B4!p! c' z z2 || %20
!mf!{/a} .g.e{/a} .^g.g .g.g{/a} .g.e | d/_e/_d/c/ .B(3A/B/A/ G.G.c.=e | %22
{/a} .g.e{/a} .^g.g .g.g{/a} .g.e | d/_e/_d/c/ .g.A G4 | z8 | z8 | z8 | z8 | %28
!mf!{/a} .g.e{/a} .^g.g .g.g{/a} .g.e | d/_e/_d/c/ .B(3A/B/A/ G.G.c.=e | %30
{/a} .g.e{/a} .^g.g .g.g{/a} .g.e | d/_e/_d/c/ .g{/B}.A G2 F2 | z8 | z8 | z8 | z8 || %36
[K:Ab][M:3/4] z6 | z6 | z6 | z6 | z6 | z6 | z6 | z2!mp!{/=e} ._e.e e2 | %44
{/=e} ._e.e e/=e/._e/.=d/ E2 | z6 | z6 | z6 | z6 | z6 | z6 | z6 | z2!mp!{/=e} ._e.e e2 | %53
{/=e} ._e.e e/=e/._e/.=d/ E2 | z2!p! e4 ||[K:C] z6 |[M:4/4] z8 | z8 | z8 | z8 | z8 | z8 | z8 | %63
 z6!pp! .d2 | .D2 z2 z2 .d2 | .D2 z2 z2!p! .e2 | .d2 z2 z4 |!mp! z2 .e2 z2 .e2 | z2 .e2 z2 .e2 | %69
 z2 .e2 z2 .d2 | z8 | z2 .e2 z2 .e2 | z2 .e2 z2 .e2 | z2 .f2 z2 .e2 | z8 ||[K:Eb] z8 | %76
!p! C z C z C z C z | C z C z C z C z | c z (3c^cd z4 | z8 | z8 | z8 | z8 |!p! C z c z B z A z | %84
 G z z2 z4 | c z (3c^cd z4 |[M:2/4] z4 |[M:4/4] z8 | z8 | z z/ =E/ F z/ z2 _E/ _F z | %90
 z z/ D/ E z/ z2 _D/ =D z |!f! f/d/f/d/ f/d/_g e'2 .B z | z2 z A _C2 C2 | z8 | z8 || %95
[K:Bb]!p! D4 A/B/A/B/ AA | dBdA G4 |!mf! G4 e/=e/_e/=e/ ee- | e/^f/=f/^f/ =ff- f/_e/=e/_e/ =ee | %99
!f! =E4 =B/c/B/c/ BB | =ece=B A4 | d/^c/d/c/ dd- d/c/d/c/ dd | z8 |!p! =B4 ^f/g/f/g/ ff | %104
 AFA=E D4 | e2 dE FG A2 | B2 B4 z2 || %107

